X: 14
T: Mille quingentis / Requiem
N: Derived from Obr2018-Mille_quingentis__Requiem.krn
C: Jacob Obrecht
%%abc-version 2.0
%%abcx-abcm2ps-target-version 5.9.1 (29 Sep 2008)
%%abc-creator hum2abc beta
%%abcx-conversion-date 2019/02/17 07:23:44
%%abc-edited-by Jesse Rodin
%%abc-edited-by Jesse Rodin 08/01/2010
%%abcx-initial-encoding-date 2012/11/10/
%%humdrum-veritas 4083013900
%%humdrum-veritas-data 693707973
%%linebreak <none>
%%barnumbers 0
L: 1/4
M: 3/1
Q: 1/2=120
%%staves [1 2 3 4]
V: 1 clef=treble
V: 2 clef=treble-8
V: 3 clef=treble-8
V: 4 clef=bass
K: C
[V:1] E4E3FG4 | 
[V:2] e6dcB4 | 
[V:3] z12 | 
[V:4] E,12 | 
[V:1] C4D2C2D4 | 
[V:2] A4z4A4 | 
[V:3] z12 | 
[V:4] F,12 | 
[V:1] E3FG2A4^G2 | 
[V:2] B2c4BAB4 | 
[V:3] z12 | 
[V:4] E,12 | 
[V:1] A4z2c3BAG | 
[V:2] A12- | 
[V:3] E12 | 
[V:4] A,,12 | 
[V:1] F2A3GFED4 | 
[V:2] A8_B4 | 
[V:3] F12 | 
[V:4] D,12 | 
[V:1] C2E3DC2B,4 | 
[V:2] A2c3BA4G2 | 
[V:3] E12 | 
[V:4] A,,8z4 | 
[V:1] A,2c3BA4G2 | 
[V:2] A2e3dc2B4 | 
[V:3] E12 | 
[V:4] A,,4C,3D,E,2G,2 | 
[V:1] A2F3EC2D4 | 
[V:2] A2c3BG2A4 | 
[V:3] z12 | 
[V:4] F,2A,3G,E,2F,4 | 
[V:1] E12- | 
[V:2] B4c2B2c3B/A/ | 
[V:3] z12 | 
[V:4] E,4z2E,2E,2A,,2 | 
[V:1] E4z4z4 | 
[V:2] G2c3BB4A2 | 
[V:3] z12 | 
[V:4] E,6D,2C,3B,,/A,,/ | 
[V:1] z12 | 
[V:2] B4z4z4 | 
[V:3] E4F8 | 
[V:4] G,,4A,,8 | 
[V:1] D8G4 | 
[V:2] B8d4 | 
[V:3] G12 | 
[V:4] G,,8B,,4 | 
[V:1] E4D8 | 
[V:2] c4A8 | 
[V:3] G4F8 | 
[V:4] C,4D,6E,F, | 
[V:1] E6E2E4 | 
[V:2] B6G2c4 | 
[V:3] E12 | 
[V:4] G,6C,2C,4 | 
[V:1] C8z2c2- | 
[V:2] A4z2c3BAG | 
[V:3] F12 | 
[V:4] F,,12 | 
[V:1] c2A3GFEF3E/D/ | 
[V:2] A3Bc2d3Ad2 | 
[V:3] F12 | 
[V:4] z2F,3E,D,C,D,4 | 
[V:1] C2c3BA4^G2 | 
[V:2] e6c2B4 | 
[V:3] E12 | 
[V:4] A,,8z4 | 
[V:1] A4z4D4 | 
[V:2] A2c2B2A4G2 | 
[V:3] z12 | 
[V:4] z2F,,2G,,2A,,2B,,4 | 
[V:1] F2E2F2G2C2c2- | 
[V:2] A4z2G2A2G2 | 
[V:3] z12 | 
[V:4] A,,2C,2D,2E,2F,2E,2 | 
[V:1] cAd3cc3B/A/B2 | 
[V:2] A2B2c4d4 | 
[V:3] z12 | 
[V:4] F,2G,2A,4G,4 | 
[V:1] E12 | 
[V:2] c12- | 
[V:3] G12 | 
[V:4] C,12 | 
[V:1] z2G3FF3E/D/E2 | 
[V:2] c12 | 
[V:3] G12 | 
[V:4] C,3D,E,2F,2C,4 | 
[V:1] A,8z2c2- | 
[V:2] c8A4 | 
[V:3] F12 | 
[V:4] z4z4F,4 | 
[V:1] cBB3A/G/A2D4 | 
[V:2] B4c4B4- | 
[V:3] z12 | 
[V:4] G,4A,4G,4- | 
[V:1] z2d3cc3B/A/B2 | 
[V:2] B4c4d4 | 
[V:3] z12 | 
[V:4] G,4A,4G,4 | 
[V:1] E2A3GG4^F2 | 
[V:2] c6B2A4 | 
[V:3] z12 | 
[V:4] A,2F,4G,2D,4 | 
[V:1] G4z4G4 | 
[V:2] GABcd2e4dc | 
[V:3] G12 | 
[V:4] G,,3A,,B,,2C,2G,,2G,2- | 
[V:1] G4E4D4- | 
[V:2] B4c4F4- | 
[V:3] G8_B4- | 
[V:4] G,F,E,D,C,4_B,,4- | 
[V:1] D4E8 | 
[V:2] F4c8 | 
[V:3] B4G8 | 
[V:4] B,,4C,8 | 
[V:1] F8z4 | 
[V:2] A8D4 | 
[V:3] F8G4 | 
[V:4] D,6C,2_B,,4 | 
[V:1] z12 | 
[V:2] E2D2F2G2A4 | 
[V:3] A6G2F4 | 
[V:4] A,,2F,4E,4D,2 | 
[V:1] D8D2E2 | 
[V:2] B6A2B2c2 | 
[V:3] z12 | 
[V:4] G,6F,2G,2F,E, | 
[V:1] F6E2F2ED | 
[V:2] d4z4d4 | 
[V:3] z12 | 
[V:4] D,6C,2D,2C,B,, | 
[V:1] C2c2B2A4^G2 | 
[V:2] e4d2c2B4 | 
[V:3] z12 | 
[V:4] A,,4B,,2C,2D,2E,2 | 
[V:1] A4G4A2GF | 
[V:2] A4B4c4- | 
[V:3] E12 | 
[V:4] A,,4z4A,,4 | 
[V:1] E4D4E2G2- | 
[V:2] c4A4B4 | 
[V:3] E4F4G4- | 
[V:4] C,4D,4G,,4 | 
[V:1] G2E4DCD4 | 
[V:2] c4A8 | 
[V:3] G4F8 | 
[V:4] C,4D,8 | 
[V:1] E4z2G4E2 | 
[V:2] B2c3Be3dB2 | 
[V:3] E12 | 
[V:4] G,,2A,,3G,,C,3B,,G,,2 | 
[V:1] D2A3GFEF2ED | 
[V:2] A2f3ed3cA2- | 
[V:3] F12 | 
[V:4] D,4z2D,2D,3C,/B,,/ | 
[V:1] C2F3EE4D2 | 
[V:2] A4d2c2A2B2 | 
[V:3] F12 | 
[V:4] A,,2D,2B,,2C,2D,4 | 
[V:1] E12 | 
[V:2] c6B2c3B/A/ | 
[V:3] E12 | 
[V:4] A,,4z4A,,3B,, | 
[V:1] z12 | 
[V:2] G2A3EG2F4 | 
[V:3] z12 | 
[V:4] C,2F,3E,E,4D,2 | 
[V:1] G8G4 | 
[V:2] E4z2e3dc2 | 
[V:3] z12 | 
[V:4] E,12 | 
[V:1] G4G4F4 | 
[V:2] B2c2B2e4d2 | 
[V:3] z12 | 
[V:4] z12 | 
[V:1] E4z4z4 | 
[V:2] e8z4 | 
[V:3] G8G4 | 
[V:4] C,6E,3D,C,2 | 
[V:1] z12 | 
[V:2] z12 | 
[V:3] G4G4F4 | 
[V:4] B,,2C,2B,,2E,4D,2 | 
[V:1] G6E2G2FE | 
[V:2] B4c2B2e2dc | 
[V:3] E12 | 
[V:4] E,4z4z4 | 
[V:1] D4z2G2E2G2 | 
[V:2] B6G2B2c2 | 
[V:3] z12 | 
[V:4] G,6E,2G,2F,E, | 
[V:1] F2A4G3FED | 
[V:2] d2f4e3d/c/B2 | 
[V:3] z12 | 
[V:4] D,4z2G,2E,2G,2 | 
[V:1] C2F3EE4D2 | 
[V:2] A2c3BB4A2 | 
[V:3] z12 | 
[V:4] F,2A,3G,E,2F,4 | 
[V:1] E8z4 | 
[V:2] B3A/B/c2B2c2B2 | 
[V:3] G8G4- | 
[V:4] E,4C,2E,3F,G,2 | 
[V:1] E4D2E3FG2- | 
[V:2] c4z2c2e4 | 
[V:3] G4G8 | 
[V:4] C,4B,,2C,3D,E,F, | 
[V:1] G2D4G3FD2 | 
[V:2] d2g3fe2d4 | 
[V:3] _B12 | 
[V:4] G,8G,4 | 
[V:1] E8E4 | 
[V:2] c8B4 | 
[V:3] G12 | 
[V:4] C,6D,2E,4 | 
[V:1] z2F3GA2GFED | 
[V:2] A8z4 | 
[V:3] F8G4 | 
[V:4] A,,2D,3C,A,,2B,,4 | 
[V:1] C6C2C4 | 
[V:2] e4c2f4e2 | 
[V:3] A8G4 | 
[V:4] A,,4A,,3B,,C,4 | 
[V:1] A,4z2A3GF2 | 
[V:2] d2f3ec2d4 | 
[V:3] F12 | 
[V:4] D,6A,,2D,4 | 
[V:1] E2A3GE2F4 | 
[V:2] c2f3ee4d2 | 
[V:3] z12 | 
[V:4] A,,4z4z4 | 
[V:1] E2F3EE4D2 | 
[V:2] e2A3GE2F4 | 
[V:3] z12 | 
[V:4] z12 | 
[V:1] E2D2E2G2F3E/D/ | 
[V:2] E2F2E2e4d2 | 
[V:3] z12 | 
[V:4] z12 | 
[V:1] C8z4 | 
[V:2] e4z4z4 | 
[V:3] E4F8 | 
[V:4] A,,8A,,4 | 
[V:1] D8D2E2 | 
[V:2] B8B4 | 
[V:3] G12 | 
[V:4] G,,4z4G,,4 | 
[V:1] F2A3GFEF2ED | 
[V:2] A2f3edcd4 | 
[V:3] F12 | 
[V:4] D,8B,,2D,2 | 
[V:1] C4z2c3BG2 | 
[V:2] e8e4 | 
[V:3] E12 | 
[V:4] A,,4A,,3B,,C,4 | 
[V:1] A3Bc2A3GF2- | 
[V:2] c4A3Bc2d2- | 
[V:3] F12 | 
[V:4] F,,4z2F,3E,D,2- | 
[V:1] FEC2D2E4D2 | 
[V:2] def3e/d/c2A2B2 | 
[V:3] F12 | 
[V:4] D,C,A,,2B,,2C,2D,4 | 
[V:1] E12- | 
[V:2] c6B2c4 | 
[V:3] E12- | 
[V:4] A,,6G,,2A,,4 | 
[V:1] E12 ||  
[V:2] B12 ||  
[V:3] E12 ||  
[V:4] E,,12 ||  
[V:1]  [K:C] [K:clef=treble][M:2/1]G6A2 | 
[V:2]  [K:C] [K:clef=treble-8][M:2/1]e8- | 
[V:3]  [K:C] [K:clef=treble-8][M:2/1]z8 | 
[V:4]  [K:C] [K:clef=bass][M:2/1]E,8 | 
[V:1] B4B4 | 
[V:2] e8 | 
[V:3] z8 | 
[V:4] E,4E,4 | 
[V:1] c8 | 
[V:2] e4f4 | 
[V:3] z8 | 
[V:4] A,,8 | 
[V:1] B4B4 | 
[V:2] g4e4 | 
[V:3] E8 | 
[V:4] z8 | 
[V:1] A2c4BA | 
[V:2] c4d4 | 
[V:3] F8 | 
[V:4] z8 | 
[V:1] G3A/B/c2B2- | 
[V:2] e4c2e2- | 
[V:3] E8 | 
[V:4] z8 | 
[V:1] BAA4^G2 | 
[V:2] edc2B4 | 
[V:3] E8 | 
[V:4] z8 | 
[V:1] A4D4 | 
[V:2] A2c2B2G2- | 
[V:3] z8 | 
[V:4] A,,4B,,4 | 
[V:1] E4D2E2- | 
[V:2] G2A2BAGF | 
[V:3] z8 | 
[V:4] C,4B,,2C,2- | 
[V:1] E2C2D4 | 
[V:2] E2A4^G2 | 
[V:3] z8 | 
[V:4] C,2A,,2B,,4 | 
[V:1] C4z2c2 | 
[V:2] A8 | 
[V:3] E4F4 | 
[V:4] A,,8 | 
[V:1] B2G4FE | 
[V:2] z8 | 
[V:3] G8 | 
[V:4] E,6D,C, | 
[V:1] D2E4D2 | 
[V:2] z4A4 | 
[V:3] G4F4 | 
[V:4] B,,2C,2D,4 | 
[V:1] EFGAB2c2- | 
[V:2] B2c2B2e2 | 
[V:3] E8 | 
[V:4] z2E,4C,2 | 
[V:1] c2A2AGFE | 
[V:2] c2f3edc | 
[V:3] F8 | 
[V:4] A,,2D,2z2D,2- | 
[V:1] D2E4D2 | 
[V:2] d2cBA2B2 | 
[V:3] F8 | 
[V:4] D,2A,,2D,4 | 
[V:1] E8 | 
[V:2] c4A4 | 
[V:3] E8 | 
[V:4] A,,8 | 
[V:1] z8 | 
[V:2] B2c4BA | 
[V:3] z8 | 
[V:4] E,8- | 
[V:1] z8 | 
[V:2] G2c3de2 | 
[V:3] z8 | 
[V:4] E,6C,2 | 
[V:1] z8 | 
[V:2] d2c4B2 | 
[V:3] z8 | 
[V:4] F,4D,4 | 
[V:1] E8 | 
[V:2] c8 | 
[V:3] G8 | 
[V:4] C,8 | 
[V:1] E4E4 | 
[V:2] c4c4 | 
[V:3] G8 | 
[V:4] C,4C,4 | 
[V:1] F8 | 
[V:2] A6B2 | 
[V:3] F8 | 
[V:4] D,4D,4 | 
[V:1] E6C2- | 
[V:2] c6BA | 
[V:3] z8 | 
[V:4] A,,8 | 
[V:1] CDE2G2F2- | 
[V:2] G4z2A2 | 
[V:3] z8 | 
[V:4] E,6D,2 | 
[V:1] F2E4D2 | 
[V:2] G2B4A2 | 
[V:3] z8 | 
[V:4] E,2G,2F,4 | 
[V:1] E2G3FE2 | 
[V:2] B4c4 | 
[V:3] G8 | 
[V:4] E,4C,4 | 
[V:1] D4d4- | 
[V:2] B4G4- | 
[V:3] (3:2:2G8_B4- | 
[V:4] G,,8- | 
[V:1] d2c2B4 | 
[V:2] G4d4- | 
[V:3] (3:2:2B4G8 | 
[V:4] G,,8 | 
[V:1] A4AGFE | 
[V:2] d2cBA4 | 
[V:3] F8 | 
[V:4] D,6C,2 | 
[V:1] D4C2F2- | 
[V:2] B4z2c2- | 
[V:3] G4A4- | 
[V:4] B,,4A,,4 | 
[V:1] F2E4D2 | 
[V:2] c2B2A4 | 
[V:3] A2G2F4 | 
[V:4] z8 | 
[V:1] EFGAB2c2- | 
[V:2] GABcd2e2- | 
[V:3] z8 | 
[V:4] C,4B,,2A,,2 | 
[V:1] cBA4^G2 | 
[V:2] edc2B4 | 
[V:3] z8 | 
[V:4] C,3D,E,4 | 
[V:1] A2c2B2c2- | 
[V:2] A4z4 | 
[V:3] z8 | 
[V:4] A,,4z4 | 
[V:1] c2BAG4 | 
[V:2] z8 | 
[V:3] E8 | 
[V:4] z8 | 
[V:1] C4D4 | 
[V:2] z8 | 
[V:3] (3E4F4G4- | 
[V:4] A,,4B,,4 | 
[V:1] E4F4 | 
[V:2] z8 | 
[V:3] (3:2:2G4F8 | 
[V:4] C,4D,4 | 
[V:1] G4GFED | 
[V:2] z8 | 
[V:3] E8 | 
[V:4] E,4z4 | 
[V:1] C2D2C2F2- | 
[V:2] z8 | 
[V:3] F8 | 
[V:4] z8 | 
[V:1] FEDCD4 | 
[V:2] z8 | 
[V:3] F8 | 
[V:4] z8 | 
[V:1] E8 | 
[V:2] B6c2 | 
[V:3] E8 | 
[V:4] G,8 | 
[V:1] z8 | 
[V:2] d2e4dc | 
[V:3] z8 | 
[V:4] G,4G,4 | 
[V:1] z8 | 
[V:2] B2e4d2 | 
[V:3] z8 | 
[V:4] G,4F,4 | 
[V:1] z8 | 
[V:2] e8 | 
[V:3] z8 | 
[V:4] E,8 | 
[V:1] B,6C2 | 
[V:2] z8 | 
[V:3] G8 | 
[V:4] z8 | 
[V:1] D2E4DC | 
[V:2] z8 | 
[V:3] G4G4 | 
[V:4] z8 | 
[V:1] B,2E4D2 | 
[V:2] z8 | 
[V:3] G4F4 | 
[V:4] z8 | 
[V:1] E4z4 | 
[V:2] z8 | 
[V:3] E8 | 
[V:4] z8 | 
[V:1] G8 | 
[V:2] B6c2 | 
[V:3] z8 | 
[V:4] E,6D,C, | 
[V:1] G4G4 | 
[V:2] d2e4dc | 
[V:3] z8 | 
[V:4] B,,2C,4B,,A,, | 
[V:1] G4F4 | 
[V:2] B2e4d2 | 
[V:3] z8 | 
[V:4] G,,2C,2A,,2B,,2 | 
[V:1] E8 | 
[V:2] e2dcB2c2 | 
[V:3] (3:2:2G8G4- | 
[V:4] C,4z2C,2 | 
[V:1] z8 | 
[V:2] d2e4dc | 
[V:3] (3:2:2G4G8 | 
[V:4] B,,2C,4B,,A,, | 
[V:1] G8 | 
[V:2] d2e2d2e2- | 
[V:3] B8 | 
[V:4] G,,4G,4- | 
[V:1] G4G4 | 
[V:2] e2d4c2 | 
[V:3] G8 | 
[V:4] G,2F,2E,4 | 
[V:1] B2A4GF | 
[V:2] (3d4A4B4 | 
[V:3] F8 | 
[V:4] D,4D,4 | 
[V:1] E6F2- | 
[V:2] c4z4 | 
[V:3] G4A4- | 
[V:4] C,3B,,A,,2D,2- | 
[V:1] FEC2D2E2 | 
[V:2] z8 | 
[V:3] A4G4 | 
[V:4] D,C,A,,2B,,2C,2 | 
[V:1] F2G2A4 | 
[V:2] z8 | 
[V:3] F8 | 
[V:4] D,2E,4D,2 | 
[V:1] G3AB2c2- | 
[V:2] B2c2B2e2- | 
[V:3] z8 | 
[V:4] E,8- | 
[V:1] c2BAc2B2 | 
[V:2] e2dce2e2- | 
[V:3] z8 | 
[V:4] E,8- | 
[V:1] E2A4^G2 | 
[V:2] edc2B4 | 
[V:3] z8 | 
[V:4] E,8 | 
[V:1] A2c3BA2 | 
[V:2] A4c4 | 
[V:3] E4F4 | 
[V:4] A,,4z2A,,2 | 
[V:1] G2FED2E2 | 
[V:2] B3cd2c2 | 
[V:3] G8 | 
[V:4] E,2D,C,B,,2C,2 | 
[V:1] F2EDC2D2 | 
[V:2] A3Bc2B2 | 
[V:3] F8 | 
[V:4] D,2C,B,,A,,2B,,2 | 
[V:1] E2DCB,2C2 | 
[V:2] G4z2G2 | 
[V:3] E8 | 
[V:4] C,D,E,F,G,2C,2 | 
[V:1] DEFGA2F2- | 
[V:2] A3Bc2A2 | 
[V:3] F8 | 
[V:4] z2D,2A,,2D,2- | 
[V:1] FEDCD4 | 
[V:2] z2F2A2B2 | 
[V:3] F8 | 
[V:4] D,C,B,,A,,D,4 | 
[V:1] E8 | 
[V:2] c4A4 | 
[V:3] E8- | 
[V:4] A,,6C,2- | 
[V:1] z8 | 
[V:2] z6B2 | 
[V:3] E8 | 
[V:4] C,B,,A,,4G,,2 | 
[V:1] E3FG2G2 | 
[V:2] c4B2e2 | 
[V:3] [M:3/1]z8 | 
[V:4] A,,4z4 | 
[V:1] A4G2E2- | 
[V:2] f4e2E2 | 
[V:3] z8 | 
[V:4] z8 | 
[V:1] E2D2E2G2- | 
[V:2] F4E2B2 | 
[V:3] z8 | 
[V:4] z8 | 
[V:1] GEA4^G2 | 
[V:2] c4B4 | 
[V:3] (3:2:1E12 | 
[V:4] z8 | 
[V:1] [M:3/3](3A4z4A4 | 
[V:2] [M:3/3](3A4c4d4 | 
[V:3] [M:3/3](3:2:1F12 | 
[V:4] [M:3/3](3D,4A,,4D,4 | 
[V:1] (3c6B2A4 | 
[V:2] (3:2:2e8e4 | 
[V:3] (3:2:1E12 | 
[V:4] (3:2:2A,,8A,,4 | 
[V:1] (3:2:4G6F2E2D2 | 
[V:2] (3:2:4e6d2c2B2 | 
[V:3] (3:2:1E12 | 
[V:4] (3C,6D,2E,4 | 
[V:1] (3C4F6E2 | 
[V:2] (3A4c6B2 | 
[V:3] (3:2:1z12 | 
[V:4] (3F,4A,6G,2 | 
[V:1] (3:2:2E8D4 | 
[V:2] (3:2:2B8A4 | 
[V:3] (3:2:1z12 | 
[V:4] (3:2:2E,4F,8 | 
[V:1] (3E4z4z4 | 
[V:2] (3B4E4F4 | 
[V:3] (3:2:1z12 | 
[V:4] (3E,6A,,2A,,4 | 
[V:1] (3:2:1z12 | 
[V:2] (3:2:5G2E4D2D2C2 | 
[V:3] (3:2:2E4F8 | 
[V:4] (3:2:2G,,4F,,8 | 
[V:1] (3G6A2B4 | 
[V:2] (3:2:4E4e6d c | 
[V:3] (3:2:1G12 | 
[V:4] (3:2:1E,,12 | 
[V:1] (3:2:5B4A2c4B A | 
[V:2] (3B4c4d4 | 
[V:3] (3:2:2G4F8 | 
[V:4] (3:2:1z12 | 
[V:1] (3:2:4G6F2E2D2 | 
[V:2] (3:2:4e6d cB4 | 
[V:3] (3:2:1E12 | 
[V:4] (3:2:1z12 | 
[V:1] (3C4D6E2 | 
[V:2] (3:2:2A8z4 | 
[V:3] (3:2:1F12 | 
[V:4] (3:2:1z12 | 
[V:1] (3F4C4D4 | 
[V:2] (3:2:1A12 | 
[V:3] (3:2:1F12 | 
[V:4] (3:2:1z12 | 
[V:1] (3:2:4E4G6F E | 
[V:2] (3:2:2B8G4 | 
[V:3] (3:2:1E12 | 
[V:4] (3z4z4E,4 | 
[V:1] (3D4G4F4 | 
[V:2] (3B6c2d4 | 
[V:3] (3:2:1z12 | 
[V:4] (3:2:4G,6F, E,D,4 | 
[V:1] (3D4E4F4 | 
[V:2] (3B6c2d4 | 
[V:3] (3:2:1z12 | 
[V:4] (3:2:2G,8F,4 | 
[V:1] (3:2:4G4A6G F | 
[V:2] (3:2:2c8B4 | 
[V:3] (3:2:1z12 | 
[V:4] (3:2:2E,4D,8 | 
[V:1] (3:2:2E8z4 | 
[V:2] (3:2:1c12 | 
[V:3] (3:2:1G12 | 
[V:4] (3:2:1C,12 | 
[V:1] (3G6A2B4 | 
[V:2] (3:2:1B12 | 
[V:3] (3:2:1G12 | 
[V:4] (3:2:1z12 | 
[V:1] (3:2:4c6B2A2G2 | 
[V:2] A8- | 
[V:3] (3:2:1F12 | 
[V:4] (3z4z4D,4 | 
[V:1] (3:2:4F6E DC4 | 
[V:2] (3:2:1A12 | 
[V:3] (3:2:1z12 | 
[V:4] (3:2:4D,6C, B,,A,,4 | 
[V:1] (3z4z4C4 | 
[V:2] (3B4A6G2 | 
[V:3] (3:2:1z12 | 
[V:4] (3:2:2D,8C,4 | 
[V:1] (3G4A4c4 | 
[V:2] (3:2:2G8^F4 | 
[V:3] (3:2:1z12 | 
[V:4] (3:2:2B,,4A,,8 | 
[V:1] (3:2:2B8d4- | 
[V:2] (3:2:1G12 | 
[V:3] (3:2:1G12 | 
[V:4] (3:2:1G,,12- | 
[V:1] (3:2:5d2c2B2A2G4 | 
[V:2] d8- | 
[V:3] (3:2:2G8_B4- | 
[V:4] (3:2:1G,,12 | 
[V:1] (3F4G4_B4 | 
[V:2] (3:2:2d4e8 | 
[V:3] (3:2:2B4G8 | 
[V:4] (3:2:1z12 | 
[V:1] (3:2:2A8G4 | 
[V:2] (3f6e2d4 | 
[V:3] (3:2:2F8G4 | 
[V:4] (3:2:1z12 | 
[V:1] (3F6E2D4 | 
[V:2] (3c6B2A4 | 
[V:3] (3A6G2F4 | 
[V:4] (3:2:1z12 | 
[V:1] (3D6E2F4 | 
[V:2] (3B6c2d4 | 
[V:3] (3:2:1z12 | 
[V:4] (3:2:4G,6F, E,D,4 | 
[V:1] (3:2:5E6D ED2C2 | 
[V:2] (3G4B4A4 | 
[V:3] (3:2:1z12 | 
[V:4] (3:2:2G,8F,4 | 
[V:1] (3:2:2C8B,4 | 
[V:2] (3:2:2G8F4 | 
[V:3] (3:2:1z12 | 
[V:4] (3:2:2E,4D,8 | 
[V:1] (3:2:1C12 | 
[V:2] (3G4A4G4 | 
[V:3] (3:2:1E12 | 
[V:4] (3:2:1C,12 | 
[V:1] (3:2:1z12 | 
[V:2] (3:2:2c4A4B2(3:2:1c | 
[V:3] (3E4F4G4- | 
[V:4] (3:2:1z12 | 
[V:1] (3:2:1z12 | 
[V:2] (3:2:5d2e4d cd4 | 
[V:3] (3:2:2G4F8 | 
[V:4] (3:2:1z12 | 
[V:1] (3:2:2G8G4 | 
[V:2] (3e4z4e4 | 
[V:3] (3:2:1E12 | 
[V:4] (3:2:1z12 | 
[V:1] (3A6B2c4 | 
[V:2] (3:2:4c4f6e d | 
[V:3] (3:2:1F12 | 
[V:4] (3:2:1z12 | 
[V:1] (3A4F4A4 | 
[V:2] (3c4d4c4 | 
[V:3] (3:2:1F12 | 
[V:4] (3:2:1z12 | 
[V:1] (3:2:2G8z4 | 
[V:2] (3:2:4e6d cB4 | 
[V:3] (3:2:1E12 | 
[V:4] (3:2:1z12 | 
[V:1] (3D6E2F4 | 
[V:2] (3B6c2d4 | 
[V:3] (3:2:1z12 | 
[V:4] (3:2:4G,6F, E,D,4 | 
[V:1] (3G4B4A4 | 
[V:2] (3e4d6c2 | 
[V:3] (3:2:1z12 | 
[V:4] (3:2:2G,8F,4 | 
[V:1] (3:2:4G4B2A4F2 | 
[V:2] (3:2:2c8B4 | 
[V:3] (3:2:1z12 | 
[V:4] (3:2:2E,4D,8 | 
[V:1] (3:2:2E8z4 | 
[V:2] (3:2:2c8z4 | 
[V:3] (3:2:2G8G4 | 
[V:4] (3:2:1C,12 | 
[V:1] (3:2:2E8D4 | 
[V:2] (3:2:2B8A4 | 
[V:3] (3G4G4F4 | 
[V:4] (3:2:1z12 | 
[V:1] (3:2:2E4G8 | 
[V:2] (3B6G2c4 | 
[V:3] (3:2:1E12 | 
[V:4] (3:2:1z12 | 
[V:1] (3:2:4F6E DC4 | 
[V:2] (3A4z4A4 | 
[V:3] (3:2:1z12 | 
[V:4] (3:2:4D,6C, B,,A,,4 | 
[V:1] (3:2:1z12 | 
[V:2] (3B4A6G2 | 
[V:3] (3:2:1z12 | 
[V:4] (3:2:2D,8C,4 | 
[V:1] (3:2:2z8c4 | 
[V:2] (3:2:2G8^F4 | 
[V:3] (3:2:1z12 | 
[V:4] (3:2:2B,,4A,,8 | 
[V:1] (3B4G4d4 | 
[V:2] (3:2:2G8z4 | 
[V:3] (3:2:2G8G4- | 
[V:4] (3:2:1G,,12- | 
[V:1] (3:2:5d2c2B2A2G4- | 
[V:2] d8- | 
[V:3] (3:2:2G4G8 | 
[V:4] (3:2:1G,,12- | 
[V:1] (3:2:5G2F ED4G4- | 
[V:2] (3:2:1d12 | 
[V:3] (3:2:1B12 | 
[V:4] (3:2:1G,,12 | 
[V:1] (3:2:2G4B8 | 
[V:2] (3:2:2d8e4 | 
[V:3] (3:2:1G12 | 
[V:4] (3:2:1z12 | 
[V:1] (3:2:2A8B4 | 
[V:2] (3f6e2d4 | 
[V:3] (3:2:2F8G4 | 
[V:4] (3:2:1z12 | 
[V:1] (3c4A4B4 | 
[V:2] (3:2:2c8B4 | 
[V:3] (3:2:2A8G4 | 
[V:4] (3:2:1z12 | 
[V:1] (3:2:4c4A6G F | 
[V:2] (3A4c4d4 | 
[V:3] (3:2:1F12 | 
[V:4] (3:2:1z12 | 
[V:1] (3E4D4F4 | 
[V:2] (3B6G2A4 | 
[V:3] (3:2:1z12 | 
[V:4] (3:2:4G,6F, E,D,4 | 
[V:1] (3E4D6C2 | 
[V:2] (3:2:2B8A4 | 
[V:3] (3:2:1z12 | 
[V:4] (3:2:2G,8F,4 | 
[V:1] (3:2:2C8B,4 | 
[V:2] (3:2:2G8F4 | 
[V:3] (3:2:1z12 | 
[V:4] (3:2:2E,4D,8 | 
[V:1] (3C4z4c4 | 
[V:2] (3G4z4z4 | 
[V:3] (3:2:2E4F8 | 
[V:4] (3C,4B,,4A,,4 | 
[V:1] (3:2:4B4d6c B | 
[V:2] (3:2:1z12 | 
[V:3] (3:2:1G12 | 
[V:4] (3:2:2G,,8G,,4 | 
[V:1] (3:2:4A4F6E D | 
[V:2] (3:2:2A8A4 | 
[V:3] (3:2:1F12 | 
[V:4] (3:2:2D,8D,4 | 
[V:1] (3C4z4G4 | 
[V:2] (3A4c6B2 | 
[V:3] (3:2:1E12 | 
[V:4] (3A,,6B,,2C,4 | 
[V:1] (3F6G2A4 | 
[V:2] A8- | 
[V:3] (3:2:1F12 | 
[V:4] (3:2:2D,8D,4 | 
[V:1] D2(3:2:4EF2E4D2 | 
[V:2] (3:2:1A12 | 
[V:3] (3:2:1F12 | 
[V:4] (3D,6A,,2D,4 | 
[V:1] E8- | 
[V:2] (3:2:1B4c2(3BA2c2- | 
[V:3] E8- | 
[V:4] (3:2:1G,,4A,,2(3B,,C,2A,,2- | 
[V:1] (3:2:1E12- | 
[V:2] (3:2:5c2B2c2B2c4 | 
[V:3] (3:2:1E12- | 
[V:4] (3:2:5A,,2G,,2A,,2G,,2A,,4 | 
[V:1] (3:2:1E12 |]  
[V:2] (3:2:1B12 |]  
[V:3] (3:2:1E12 |]  
[V:4] (3:2:1E,,12 |]  



